!!!OTL: 1353. Es lebe hoch der Kriegerstand.
!!!ARE: Europa, Mitteleuropa, Deutschland, Hessen, Darmstadt
!!!SCT: E1353
!!!TXL: @@DE
!!!YEM: Copyright 1995, estate of Helmut Schaffrath.
**kern	**text
*ICvox	*
*M4/4	*
*met(c)	*
*k[b-e-]	*
*B-:	*
!LO:TX:a:t=Solo.	!
!LO:TX:a:t=Marschmäßig.	!
!LO:TX:a:t=Marſchlied in Heſſen-Darmſtadt.	!
8r	.
{8B-	Es
8B-	le-
8d	-be
=1	=1
4f	hoch
4f	der
4g	Stand
4a	der
=2	=2
2b-/	Eh-
8f}	-ren,
{8f	es
8d	le-
8e-	-be
=3	=3
4f	hoch
4f	der
4b-	Krie-
4dd	-ger-
=4	=4
4cc	-ſtand!
4r	.
4r}	.
{8.cc	Muß
16b-	er
=5	=5
4a	auch
8aL	ſo
8b-J	.
4cc	man-
8.cc	-ches
16b-	ent-
=6	=6
(<4.a	-beh-
8b-)	.
4cc}	-ren,
{8.a	kämpft
16b-/	er
=7	=7
4cc	doch
4f	fürs
4a	Va-
4g	-ter-
=8	=8
4f	-land.
4r	.
4r}	.
!LO:TX:a:t=Chor.	!
{4f	Dem
=9	=9
4b-/	Soh-
8b-/	-ne
8b-/	des
8dd/	Ruh-
8cc/	-mes
8b-/	und
8g	der
=10	=10
2f	Eh-
4d}	-re
{8.g	reicht
16f	ein
=11	=11
4f	je-
8e-	-der
8d	ſo
4e-	freund-
8.f	-lich
16e-	die
=12	=12
4d	Hand.
4r	.
8r}	.
{8f	Es
8f	le-
8f	-be
=13	=13
4b-/	hoch,
4r	.
8r	.
8b-/	es
8b-/	le-
8a	-be
=14	=14
4g	hoch,
4r	.
8r}	.
{8cc/	es
8cc/	le-
8cc/	-be
=15	=15
4dd/	hoch,
4dd/	der
4ee-/	Krie-
4ff/	-ger-
=16	=16
4dd/	-ſtand!
2r}	.
{4f	Dem
=17	=17
4b-/	Soh-
8b-/	-ne
8b-/	des
8dd/	Ruh-
8cc/	-mes
8b-/	und
8g	der
=18	=18
2f	Eh-
4d}	-re
{8.g	reicht
16f	ein
=19	=19
4f	je-
8e-	-der
8d	ſo
4e-	freund-
8.f	-lich
16e-	die
=20	=20
4d	Hand.
4r	.
8r}	.
{8f	Es
8f	le-
8f	-be
=21	=21
4b-	hoch,
4r	.
8r	.
8b-/	es
8b-/	le-
8a	-be
=22	=22
4g	hoch,
4r	.
8r}	.
{8cc/	es
8cc/	le-
8cc/	-be
=23	=23
4dd/	hoch,
4dd/	der
4ee-/	Krie-
4ff/	-ger-
=24	=24
4dd/	-ſtand!
4r}	.
==	==
!!!AGN: Staende -, Soldaten -, Kriegs - Lied
!!!ONB: ESAC (Essen Associative Code) Database: ERK3
!!!AMT: simple quadruple
!!!AIN: vox
!!!EED: Helmut Schaffrath
!!!EEV: 1.0
!!!GTL: Staendelieder (Berufslieder). 1. Soldaten- und Kriegslieder. Soldatenlieder seit dem 30jaehr. Kriege.
!!!URL-scan: https://rosdok.uni-rostock.de/mcrviewer/recordIdentifier/rosdok_ppn745177999/iview2/phys_0233.iview2?x=-128.77276441889285&y=1336.1251252361108&scale=0.5870222003877487&rotation=0&layout=singlePageLayout
!!!ENC: Anna Maria Matuszewska
!!!EEV: 2024/12/30
*-	*-
